apps/www/public/images/logos/publicity/resend.svg

<svg width="100" height="60" viewBox="0 0 100 60" fill="none" xmlns="http://www.w3.org/2000/svg">
<path d="M10.9829 38.9027V21.829H18.5442C19.6011 21.829 20.5605 22.0729 21.4223 22.5607C22.2841 23.0323 22.959 23.6746 23.4468 24.4876C23.9508 25.3007 24.2029 26.2275 24.2029 27.2682C24.2029 28.2926 23.9508 29.2276 23.4468 30.0732C22.959 30.9025 22.2841 31.561 21.4223 32.0489C20.5605 32.5367 19.6011 32.7806 18.5442 32.7806H14.5196V38.9027H10.9829ZM20.6662 38.9027L16.3246 31.1952L20.0808 30.5854L24.9103 38.9271L20.6662 38.9027ZM14.5196 29.8049H18.3734C18.8125 29.8049 19.1946 29.7073 19.5198 29.5122C19.8613 29.3008 20.1214 29.0162 20.3003 28.6585C20.4792 28.2845 20.5686 27.8699 20.5686 27.4145C20.5686 26.9267 20.4629 26.504 20.2515 26.1462C20.0401 25.7885 19.7312 25.512 19.3247 25.3169C18.9182 25.1055 18.4466 24.9998 17.91 24.9998H14.5196V29.8049Z" fill="#7E7E7E"/>
<path d="M32.0004 39.1466C30.602 39.1466 29.3742 38.8621 28.3173 38.2929C27.2766 37.7238 26.4637 36.9432 25.8781 35.9514C25.3091 34.9595 25.0245 33.8212 25.0245 32.5366C25.0245 31.5285 25.1871 30.6097 25.5123 29.7804C25.8375 28.9511 26.2928 28.2357 26.8782 27.634C27.4636 27.0161 28.1547 26.5446 28.9515 26.2193C29.7645 25.8779 30.6426 25.7071 31.5858 25.7071C32.4639 25.7071 33.2768 25.8697 34.0249 26.1949C34.7728 26.5202 35.4152 26.9755 35.9518 27.5608C36.5046 28.13 36.9274 28.8129 37.2201 29.6097C37.5128 30.3902 37.6428 31.2358 37.6104 32.1464L37.586 33.2196H27.2198L26.6587 31.0976H34.7322L34.342 31.5366V31C34.3094 30.561 34.1631 30.1707 33.9028 29.8292C33.659 29.4715 33.3419 29.1951 32.9517 28.9999C32.5614 28.7885 32.1223 28.6828 31.6344 28.6828C30.9191 28.6828 30.3093 28.8211 29.8051 29.0975C29.3173 29.3739 28.9434 29.7804 28.6831 30.317C28.423 30.8536 28.2929 31.5041 28.2929 32.2683C28.2929 33.0488 28.4556 33.7236 28.7808 34.2928C29.1223 34.8619 29.5938 35.309 30.1955 35.6343C30.8133 35.9432 31.5369 36.0977 32.3662 36.0977C32.9353 36.0977 33.4557 36.0083 33.9273 35.8294C34.3988 35.6505 34.9029 35.3416 35.4396 34.9026L37.0982 37.2197C36.6266 37.6425 36.1062 38.0002 35.5371 38.2929C34.968 38.5694 34.3826 38.7807 33.7809 38.9271C33.1793 39.0734 32.5858 39.1466 32.0004 39.1466Z" fill="#7E7E7E"/>
<path d="M43.2921 39.1466C42.0888 39.1466 41.0156 38.9514 40.0725 38.5612C39.1456 38.1547 38.3977 37.6018 37.8285 36.9026L39.9993 35.0489C40.4872 35.5855 41.04 35.9757 41.6579 36.2196C42.2759 36.4473 42.8937 36.5611 43.5117 36.5611C43.7556 36.5611 43.9751 36.5367 44.1702 36.4879C44.3816 36.4229 44.5605 36.3416 44.7068 36.244C44.8532 36.1302 44.9589 36.0001 45.0239 35.8538C45.1052 35.6912 45.1459 35.5205 45.1459 35.3416C45.1459 34.9839 44.9995 34.7074 44.7068 34.5123C44.5442 34.4147 44.2922 34.309 43.9507 34.1952C43.6092 34.065 43.1702 33.9269 42.6336 33.7805C41.8043 33.5692 41.0969 33.3253 40.5115 33.0488C39.9424 32.7561 39.4871 32.4309 39.1456 32.0732C38.8529 31.7317 38.6253 31.3658 38.4627 30.9756C38.3163 30.569 38.2432 30.1219 38.2432 29.634C38.2432 29.0487 38.3733 28.5202 38.6334 28.0486C38.8936 27.5608 39.2514 27.1462 39.7066 26.8047C40.1782 26.4632 40.7148 26.203 41.3165 26.0242C41.9181 25.829 42.5522 25.7315 43.219 25.7315C43.8857 25.7315 44.5361 25.8128 45.1702 25.9754C45.8044 26.138 46.3898 26.3738 46.9264 26.6827C47.4792 26.9754 47.959 27.325 48.3655 27.7315L46.5118 29.7804C46.2191 29.504 45.8858 29.2519 45.5117 29.0243C45.154 28.7966 44.78 28.6178 44.3897 28.4877C43.9995 28.3576 43.6498 28.2925 43.3409 28.2925C43.0644 28.2925 42.8125 28.3169 42.5848 28.3657C42.3734 28.4145 42.1945 28.4958 42.0482 28.6096C41.9018 28.7072 41.7881 28.8291 41.7067 28.9755C41.6417 29.1218 41.6091 29.2844 41.6091 29.4633C41.6091 29.6422 41.6498 29.8129 41.7311 29.9755C41.8287 30.1381 41.9588 30.2764 42.1214 30.3902C42.3003 30.4877 42.5604 30.6016 42.9019 30.7316C43.2596 30.8617 43.7393 31.0081 44.3409 31.1707C45.1215 31.3821 45.78 31.6179 46.3166 31.878C46.8695 32.1382 47.3085 32.439 47.6337 32.7805C47.9102 33.0732 48.1134 33.4065 48.2435 33.7805C48.3736 34.1546 48.4387 34.5692 48.4387 35.0245C48.4387 35.8212 48.211 36.5285 47.7557 37.1465C47.3167 37.7644 46.7069 38.2523 45.9264 38.61C45.1459 38.9677 44.2678 39.1466 43.2921 39.1466Z" fill="#7E7E7E"/>
<path d="M55.8109 39.1465C54.4124 39.1465 53.1848 38.862 52.1278 38.2928C51.0872 37.7236 50.2741 36.9431 49.6887 35.9513C49.1195 34.9594 48.835 33.8211 48.835 32.5365C48.835 31.5284 48.9976 30.6096 49.3228 29.7803C49.6481 28.951 50.1033 28.2356 50.6887 27.6339C51.2741 27.016 51.9652 26.5444 52.762 26.2192C53.5751 25.8777 54.4531 25.707 55.3962 25.707C56.2743 25.707 57.0874 25.8696 57.8353 26.1948C58.5833 26.52 59.2256 26.9753 59.7622 27.5607C60.315 28.1299 60.7379 28.8128 61.0305 29.6096C61.3232 30.3901 61.4534 31.2357 61.4208 32.1463L61.3964 33.2195H51.0302L50.4692 31.0974H58.5427L58.1524 31.5365V30.9999C58.1198 30.5608 57.9735 30.1706 57.7134 29.8291C57.4694 29.4714 57.1524 29.1949 56.7621 28.9998C56.3719 28.7884 55.9328 28.6827 55.445 28.6827C54.7295 28.6827 54.1197 28.8209 53.6157 29.0974C53.1278 29.3738 52.7538 29.7803 52.4937 30.3169C52.2335 30.8535 52.1034 31.504 52.1034 32.2682C52.1034 33.0487 52.266 33.7235 52.5912 34.2927C52.9327 34.8618 53.4043 35.3089 54.0059 35.6342C54.6239 35.9431 55.3474 36.0976 56.1767 36.0976C56.7459 36.0976 57.2662 36.0082 57.7378 35.8293C58.2094 35.6504 58.7134 35.3415 59.25 34.9024L60.9086 37.2196C60.437 37.6424 59.9167 38.0001 59.3476 38.2928C58.7784 38.5693 58.193 38.7806 57.5914 38.927C56.9898 39.0733 56.3962 39.1465 55.8109 39.1465Z" fill="#7E7E7E"/>
<path d="M62.7603 38.9028V25.9999H66.0774L66.175 28.6341L65.4921 28.9268C65.671 28.3414 65.9881 27.813 66.4433 27.3414C66.9149 26.8536 67.4759 26.4633 68.1263 26.1706C68.7768 25.8779 69.4598 25.7316 70.1752 25.7316C71.1508 25.7316 71.9639 25.9267 72.6143 26.317C73.281 26.7072 73.777 27.3008 74.1021 28.0975C74.4436 28.878 74.6143 29.8456 74.6143 31.0001V38.9028H71.1508V31.2684C71.1508 30.683 71.0696 30.1952 70.9069 29.8049C70.7443 29.4147 70.4922 29.1301 70.1508 28.9512C69.8256 28.7723 69.419 28.6911 68.9312 28.7073C68.5409 28.7073 68.1751 28.7724 67.8336 28.9024C67.5085 29.0163 67.2238 29.187 66.9799 29.4147C66.7524 29.6423 66.5653 29.9025 66.4189 30.1952C66.2889 30.4879 66.2238 30.8049 66.2238 31.1464V38.9028H64.5164C64.1425 38.9028 63.8091 38.9028 63.5164 38.9028C63.2237 38.9028 62.9717 38.9028 62.7603 38.9028Z" fill="#7E7E7E"/>
<path d="M81.7635 39.1467C80.6253 39.1467 79.609 38.8622 78.7146 38.293C77.8365 37.7076 77.1374 36.9189 76.617 35.9271C76.1129 34.9189 75.8609 33.7563 75.8609 32.4392C75.8609 31.1546 76.1129 30.0082 76.617 29C77.1374 27.9756 77.8365 27.1788 78.7146 26.6097C79.609 26.0243 80.6253 25.7316 81.7635 25.7316C82.3652 25.7316 82.9424 25.8292 83.4953 26.0243C84.0644 26.2032 84.5685 26.4552 85.0075 26.7804C85.4629 27.1056 85.8288 27.4715 86.1051 27.878C86.3816 28.2683 86.5361 28.6748 86.5686 29.0976L85.6905 29.2683V20.8534H89.1784V38.9028H85.8856L85.7393 35.9271L86.4222 36.0002C86.3898 36.4067 86.2434 36.797 85.9832 37.171C85.723 37.5451 85.3734 37.8865 84.9343 38.1954C84.5117 38.4881 84.0238 38.7239 83.4709 38.9028C82.9343 39.0654 82.3652 39.1467 81.7635 39.1467ZM82.544 36.2686C83.1945 36.2686 83.7636 36.106 84.2514 35.7807C84.7392 35.4555 85.1214 35.0084 85.3978 34.4392C85.6742 33.8701 85.8124 33.2034 85.8124 32.4392C85.8124 31.6912 85.6742 31.0326 85.3978 30.4635C85.1214 29.8944 84.7392 29.4472 84.2514 29.122C83.7636 28.7968 83.1945 28.6342 82.544 28.6342C81.8936 28.6342 81.3245 28.7968 80.8366 29.122C80.3652 29.4472 79.9911 29.8944 79.7147 30.4635C79.4545 31.0326 79.3244 31.6912 79.3244 32.4392C79.3244 33.2034 79.4545 33.8701 79.7147 34.4392C79.9911 35.0084 80.3652 35.4555 80.8366 35.7807C81.3245 36.106 81.8936 36.2686 82.544 36.2686Z" fill="#7E7E7E"/>
</svg>

<svg xmlns="http://www.w3.org/2000/svg" width="100" height="60" fill="none" viewBox="0 0 100 60"><path fill="#7e7e7e" d="M10.983 38.903V21.829h7.561q1.586 0 2.878.732a5.25 5.25 0 0 1 2.025 1.927q.756 1.22.756 2.78 0 1.538-.756 2.805a5.37 5.37 0 0 1-2.025 1.976q-1.291.732-2.878.732H14.52v6.122zm9.683 0-4.341-7.708 3.756-.61 4.83 8.342zm-6.146-9.098h3.853q.66 0 1.147-.293a2.1 2.1 0 0 0 .78-.854q.27-.56.269-1.244 0-.73-.317-1.268a2.1 2.1 0 0 0-.927-.83Q18.715 25 17.91 25h-3.39zM32 39.147q-2.097 0-3.683-.854a6.26 6.26 0 0 1-2.439-2.342q-.854-1.488-.854-3.414 0-1.512.488-2.757.487-1.243 1.366-2.146a5.9 5.9 0 0 1 2.073-1.415 6.7 6.7 0 0 1 2.635-.512q1.316 0 2.439.488 1.122.487 1.927 1.366.829.853 1.268 2.049.44 1.17.39 2.536l-.024 1.074H27.22l-.561-2.122h8.073l-.39.439V31a2.15 2.15 0 0 0-.44-1.17 2.47 2.47 0 0 0-.95-.83 2.7 2.7 0 0 0-1.318-.317q-1.073 0-1.829.415a2.73 2.73 0 0 0-1.122 1.219q-.39.805-.39 1.951 0 1.17.488 2.025.512.853 1.415 1.341.925.465 2.17.464.855 0 1.561-.269.708-.267 1.513-.926l1.658 2.317q-.707.633-1.56 1.073a8.7 8.7 0 0 1-1.757.634 7.5 7.5 0 0 1-1.78.22M43.292 39.147q-1.804 0-3.22-.586-1.389-.61-2.244-1.658L40 35.049a4.4 4.4 0 0 0 1.659 1.17 5.3 5.3 0 0 0 1.854.342q.366 0 .658-.073a2 2 0 0 0 .537-.244q.22-.171.317-.39a1.1 1.1 0 0 0 .122-.512.94.94 0 0 0-.44-.83q-.243-.146-.755-.317-.512-.195-1.317-.414-1.245-.318-2.123-.732-.853-.44-1.365-.976a4.1 4.1 0 0 1-.683-1.097 4 4 0 0 1-.22-1.342q0-.878.39-1.585.39-.732 1.074-1.244a5.3 5.3 0 0 1 1.61-.78 6.1 6.1 0 0 1 1.902-.293q1 0 1.951.243a7 7 0 0 1 1.756.708 6 6 0 0 1 1.44 1.049l-1.854 2.048a6 6 0 0 0-1-.756 5 5 0 0 0-1.122-.536 3.4 3.4 0 0 0-1.05-.195q-.414 0-.755.073-.317.073-.537.244-.22.146-.341.366a1.19 1.19 0 0 0 .024 1q.147.243.39.414.27.147.78.342.538.195 1.44.439 1.17.317 1.976.707.83.39 1.317.903.415.439.61 1t.195 1.244q0 1.194-.683 2.122-.66.926-1.83 1.463t-2.634.537M55.81 39.147q-2.097 0-3.682-.854a6.26 6.26 0 0 1-2.44-2.342q-.853-1.488-.853-3.415 0-1.511.488-2.756.487-1.243 1.366-2.146a5.9 5.9 0 0 1 2.073-1.415 6.7 6.7 0 0 1 2.634-.512 6.05 6.05 0 0 1 2.44.488q1.121.487 1.926 1.366.83.853 1.269 2.049.438 1.17.39 2.536l-.025 1.073H51.03l-.56-2.122h8.073l-.39.44V31a2.15 2.15 0 0 0-.44-1.17 2.47 2.47 0 0 0-.95-.83 2.7 2.7 0 0 0-1.318-.317q-1.073 0-1.83.414a2.73 2.73 0 0 0-1.121 1.22q-.39.805-.39 1.951 0 1.17.487 2.025.513.854 1.415 1.341.927.465 2.17.464.855 0 1.562-.269.706-.268 1.512-.927l1.659 2.318q-.708.633-1.561 1.073a8.7 8.7 0 0 1-1.757.634 7.5 7.5 0 0 1-1.78.22M62.76 38.903V26h3.317l.098 2.634-.683.293a3.9 3.9 0 0 1 .951-1.586 5.4 5.4 0 0 1 1.683-1.17 4.9 4.9 0 0 1 2.05-.44q1.463 0 2.438.586 1 .586 1.488 1.78.512 1.172.512 2.903v7.903h-3.463v-7.635q0-.878-.244-1.463-.245-.585-.756-.854-.488-.268-1.22-.244-.585 0-1.097.195-.489.171-.854.513a3 3 0 0 0-.561.78q-.195.44-.195.951v7.757H62.76M81.764 39.147q-1.708 0-3.05-.854-1.316-.878-2.097-2.366-.756-1.512-.756-3.488 0-1.926.756-3.439.78-1.536 2.098-2.39 1.341-.879 3.048-.878.904 0 1.732.292.854.27 1.512.756.684.488 1.098 1.098.415.585.464 1.22l-.879.17v-8.415h3.488v18.05h-3.292l-.147-2.976.683.073a2.36 2.36 0 0 1-.439 1.171 4.2 4.2 0 0 1-1.049 1.024q-.633.44-1.463.708a5.9 5.9 0 0 1-1.708.244m.78-2.878q.976 0 1.707-.488a3.3 3.3 0 0 0 1.147-1.342q.414-.854.414-2 0-1.121-.414-1.976a3.3 3.3 0 0 0-1.147-1.341q-.73-.488-1.707-.488-.976 0-1.707.488-.708.487-1.122 1.342-.39.853-.39 1.975 0 1.146.39 2 .414.855 1.122 1.342.731.488 1.707.488"/></svg>
